X: 5003
T: Breton
R: waltz
M: 3/4
K: Eminor
|:EF GA Be|g3f eB|c2 ec AG|AB BA GF|
EF GA Be|g3f eB|c2 ec AG|1 A3G GF:|2 A3D EG||
|:A3c eb|a2 ag f/g/a|fg gf ed|AB GE GB|
A^G Ac eb|a2 ag f/g/a|fg gf ed|1 B3c Bc:|2 B4 ef||
|:fg gf eB|g3f eB|AB BA Bc-|cB BA AB|
g2 gf eB|g3f eB|e~f3 ga|1 b3a gf:|2 b6||

